X: 32361
T: Pip Murphy's
R: jig
M: 6/8
K: Gmajor
|:D|G3 g2e|dBG AGE|DEG AGA|BAA A2B|
~G3 g2e|dBG AGE|DEG AGA|BGG G2:|
|:d|~e3 gfe|Bde gfe|~e3 gfe|fBB B2 d|
~e3 gfe|agf gfe|~B3 AGA|BEE E2:|

